resources/haticons/SVG/graphic_eq.svg

<!-- Generated by IcoMoon.io -->
<svg version="1.1" xmlns="http://www.w3.org/2000/svg" width="24" height="24" viewBox="0 0 24 24">
<title>graphic_eq</title>
<path d="M18.984 9.984h2.016v4.031h-2.016v-4.031zM15 18v-12h2.016v12h-2.016zM3 14.016v-4.031h2.016v4.031h-2.016zM11.016 21.984v-19.969h1.969v19.969h-1.969zM6.984 18v-12h2.016v12h-2.016z"></path>
</svg>

<svg xmlns="http://www.w3.org/2000/svg" width="24" height="24"><path d="M18.984 9.984H21v4.031h-2.016V9.984zM15 18V6h2.016v12H15zM3 14.016V9.985h2.016v4.031H3zm8.016 7.968V2.015h1.969v19.969h-1.969zM6.984 18V6H9v12H6.984z"/></svg>
